material/.icons/material/format-quote-close-outline.svg

<svg xmlns="http://www.w3.org/2000/svg" viewBox="0 0 24 24"><path d="M13 6v8h1.88l-2 4h5.74L21 13.24V6m-6 2h4v4.76L17.38 16h-1.26l2-4H15M3 6v8h1.88l-2 4h5.74L11 13.24V6M5 8h4v4.76L7.38 16H6.12l2-4H5z"/></svg>

<?xml version="1.0" encoding="UTF-8"?><!DOCTYPE svg PUBLIC "-//W3C//DTD SVG 1.1//EN" "http://www.w3.org/Graphics/SVG/1.1/DTD/svg11.dtd"><svg xmlns="http://www.w3.org/2000/svg" xmlns:xlink="http://www.w3.org/1999/xlink" version="1.1" id="mdi-format-quote-close-outline" width="24" height="24" viewBox="0 0 24 24"><path d="M13 6V14H14.88L12.88 18H18.62L21 13.24V6M15 8H19V12.76L17.38 16H16.12L18.12 12H15M3 6V14H4.88L2.88 18H8.62L11 13.24V6M5 8H9V12.76L7.38 16H6.12L8.12 12H5Z" /></svg>
